modules/hawcons-stroke/icons/icon-90-inbox-document.svg

<?xml version="1.0" encoding="UTF-8" standalone="no"?>
<svg width="32px" height="32px" viewBox="0 0 32 32" version="1.1" xmlns="http://www.w3.org/2000/svg" xmlns:xlink="http://www.w3.org/1999/xlink" xmlns:sketch="http://www.bohemiancoding.com/sketch/ns">
    <!-- Generator: Sketch 3.0.3 (7891) - http://www.bohemiancoding.com/sketch -->
    <title>icon 90 inbox document</title>
    <desc>Created with Sketch.</desc>
    <defs></defs>
    <g id="Page-1" stroke="none" stroke-width="1" fill="none" fill-rule="evenodd" sketch:type="MSPage">
        <g id="icon-90-inbox-document" sketch:type="MSArtboardGroup" fill="#929292">
            <path d="M21,19 L25,19 L25,12 L20.9979131,12 C19.8944962,12 19,11.1134452 19,9.99408095 L19,5 L8.9955775,5 C8.44573523,5 8,5.43891776 8,6.00307055 L8,19 L12,19 L12,21.0020869 C12,22.1055038 12.8958578,23 13.9973917,23 L19.0026083,23 C20.1057373,23 21,22.1017394 21,21.0020869 L21,19 L21,19 Z M22,20 L28,20 L28,27 L5,27 L5,20 L11,20 L11,21.5 C11,22.8807119 12.1152735,24 13.4960703,24 L19.5039297,24 C20.8824713,24 22,22.8903379 22,21.5 L22,20 L22,20 L22,20 Z M4,19.5 L4,19 L7,14.2 L7,6.00494659 C7,4.89702623 7.89666625,4 9.00276013,4 L20,4 L26,11 L26,11.5 L26,14.2 L29,19 L29,28 L4,28 L4,19.5 L4,19.5 Z M7,19 L7,16.1599609 L5.22497559,19 L7,19 L7,19 L7,19 Z M26,19 L26,16.1599609 L27.7750244,19 L26,19 L26,19 L26,19 Z M20,5.5 L20,9.99121523 C20,10.5483517 20.4506511,11 20.9967388,11 L24.6999512,11 L20,5.5 L20,5.5 Z" id="inbox-document" sketch:type="MSShapeGroup"></path>
        </g>
    </g>
</svg>

<svg width="32" height="32" xmlns="http://www.w3.org/2000/svg"><path d="M21 19h4v-7h-4.002A1.995 1.995 0 0 1 19 9.994V5H8.996A.993.993 0 0 0 8 6.003V19h4v2.002c0 1.104.896 1.998 1.997 1.998h5.006A2 2 0 0 0 21 21.002V19zm1 1h6v7H5v-7h6v1.5c0 1.38 1.115 2.5 2.496 2.5h6.008A2.492 2.492 0 0 0 22 21.5V20zm-18-.5V19l3-4.8V6.005C7 4.897 7.897 4 9.003 4H20l6 7v3.2l3 4.8v9H4v-8.5zm3-.5v-2.84L5.225 19H7zm19 0v-2.84L27.775 19H26zM20 5.5v4.491c0 .557.45 1.009.997 1.009H24.7L20 5.5z" fill="#929292" fill-rule="evenodd"/></svg>
